;Generated with Cura_SteamEngine 15.01
; Default start code
G28 ; Home extruder
G1 Z15 F100
M107 ; Turn off fan
G90 ; Absolute positioning
M82 ; Extruder in absolute mode
M190 S50
; Activate all used extruder
M104 T0 S210
G92 E0 ; Reset extruder position
; Wait for all used extruders to reach temperature
M109 T0 S210
;Layer count: 100
;LAYER:0
M107
G0 F9000 X85.149 Y85.711 Z0.300
;TYPE:SKIRT
G1 F1800 X86.291 Y84.612 E0.07907
G1 X87.508 Y83.609 E0.15775
G1 X88.794 Y82.705 E0.23618
G1 X90.151 Y81.897 E0.31497
G1 X91.571 Y81.194 E0.39402
G1 X93.036 Y80.603 E0.47283
G1 X94.539 Y80.129 E0.55146
G1 X96.073 Y79.769 E0.63007
G1 X97.640 Y79.527 E0.70917
G1 X99.214 Y79.407 E0.78793
G1 X100.785 Y79.407 E0.86631
G1 X102.359 Y79.527 E0.94506
G1 X103.926 Y79.769 E1.02417
G1 X105.460 Y80.129 E1.10278
G1 X106.963 Y80.603 E1.18140
G1 X108.428 Y81.194 E1.26021
G1 X109.848 Y81.897 E1.33927
G1 X111.205 Y82.705 E1.41806
G1 X112.491 Y83.609 E1.49648
G1 X113.708 Y84.612 E1.57516
G1 X114.850 Y85.711 E1.65423
G1 X115.897 Y86.888 E1.73283
G1 X116.855 Y88.141 E1.81152
G1 X117.714 Y89.470 E1.89046
G1 X118.465 Y90.851 E1.96889
G1 X119.115 Y92.297 E2.04799
G1 X119.648 Y93.788 E2.12698
G1 X120.065 Y95.303 E2.20538
G1 X120.365 Y96.852 E2.28409
G1 X120.546 Y98.417 E2.36269
G1 X120.608 Y100.000 E2.44173
G1 X120.546 Y101.583 E2.52077
G1 X120.365 Y103.147 E2.59931
G1 X120.065 Y104.696 E2.67803
G1 X119.648 Y106.211 E2.75643
G1 X119.115 Y107.702 E2.83542
G1 X118.465 Y109.148 E2.91452
G1 X117.714 Y110.529 E2.99294
G1 X116.855 Y111.858 E3.07189
G1 X115.897 Y113.111 E3.15058
G1 X114.850 Y114.288 E3.22917
G1 X113.708 Y115.387 E3.30825
G1 X112.491 Y116.390 E3.38692
G1 X111.205 Y117.294 E3.46535
G1 X109.848 Y118.102 E3.54414
G1 X108.428 Y118.805 E3.62319
G1 X106.963 Y119.396 E3.70201
G1 X105.460 Y119.870 E3.78063
G1 X103.926 Y120.230 E3.85924
G1 X102.359 Y120.472 E3.93835
G1 X100.785 Y120.592 E4.01710
G1 X99.214 Y120.592 E4.09548
G1 X97.640 Y120.472 E4.17423
G1 X96.073 Y120.230 E4.25334
G1 X94.539 Y119.870 E4.33195
G1 X93.036 Y119.396 E4.41058
G1 X91.571 Y118.805 E4.48939
G1 X90.151 Y118.102 E4.56844
G1 X88.794 Y117.294 E4.64723
G1 X87.508 Y116.390 E4.72566
G1 X86.291 Y115.387 E4.80434
G1 X85.149 Y114.288 E4.88341
G1 X84.102 Y113.111 E4.96200
G1 X83.144 Y111.858 E5.04069
G1 X82.285 Y110.529 E5.11964
G1 X81.534 Y109.148 E5.19807
G1 X80.884 Y107.702 E5.27716
G1 X80.351 Y106.211 E5.35616
G1 X79.934 Y104.696 E5.43455
G1 X79.634 Y103.147 E5.51327
G1 X79.452 Y101.576 E5.59217
G1 X79.392 Y100.000 E5.67085
G1 X79.452 Y98.423 E5.74959
G1 X79.634 Y96.852 E5.82849
G1 X79.934 Y95.303 E5.90720
G1 X80.351 Y93.788 E5.98560
G1 X80.884 Y92.297 E6.06460
G1 X81.534 Y90.851 E6.14369
G1 X82.285 Y89.470 E6.22212
G1 X83.144 Y88.141 E6.30107
G1 X84.102 Y86.888 E6.37976
G1 X85.149 Y85.711 E6.45835
G0 F9000 X85.437 Y85.989
G1 F1800 X86.557 Y84.911 E6.53590
G1 X87.751 Y83.928 E6.61306
G1 X89.012 Y83.041 E6.68998
G1 X90.342 Y82.248 E6.76723
G1 X91.735 Y81.559 E6.84476
G1 X93.172 Y80.980 E6.92206
G1 X94.645 Y80.515 E6.99912
G1 X96.149 Y80.162 E7.07619
G1 X97.686 Y79.924 E7.15379
G1 X99.229 Y79.807 E7.23099
G1 X100.770 Y79.807 E7.30787
G1 X102.313 Y79.924 E7.38507
G1 X103.850 Y80.162 E7.46267
G1 X105.354 Y80.515 E7.53974
G1 X106.827 Y80.980 E7.61681
G1 X108.264 Y81.559 E7.69410
G1 X109.657 Y82.248 E7.77163
G1 X110.987 Y83.041 E7.84888
G1 X112.248 Y83.928 E7.92580
G1 X113.442 Y84.911 E8.00296
G1 X114.562 Y85.989 E8.08052
G1 X115.589 Y87.143 E8.15759
G1 X116.527 Y88.372 E8.23472
G1 X117.370 Y89.675 E8.31215
G1 X118.107 Y91.029 E8.38906
G1 X118.744 Y92.447 E8.46661
G1 X119.267 Y93.908 E8.54403
G1 X119.675 Y95.395 E8.62096
G1 X119.970 Y96.913 E8.69811
G1 X120.147 Y98.447 E8.77515
G1 X120.208 Y100.000 E8.85269
G1 X120.147 Y101.552 E8.93018
G1 X119.970 Y103.086 E9.00721
G1 X119.675 Y104.604 E9.08437
G1 X119.267 Y106.091 E9.16129
G1 X118.744 Y107.552 E9.23871
G1 X118.107 Y108.970 E9.31627
G1 X117.370 Y110.324 E9.39318
G1 X116.527 Y111.627 E9.47060
G1 X115.589 Y112.856 E9.54774
G1 X114.562 Y114.010 E9.62481
G1 X113.442 Y115.088 E9.70236
G1 X112.248 Y116.071 E9.77952
G1 X110.987 Y116.958 E9.85644
G1 X109.657 Y117.751 E9.93369
G1 X108.264 Y118.440 E10.01122
G1 X106.827 Y119.019 E10.08852
G1 X105.354 Y119.484 E10.16558
G1 X103.850 Y119.837 E10.24265
G1 X102.313 Y120.075 E10.32025
G1 X100.770 Y120.192 E10.39745
G1 X99.229 Y120.192 E10.47433
G1 X97.686 Y120.075 E10.55153
G1 X96.149 Y119.837 E10.62913
G1 X94.645 Y119.484 E10.70620
G1 X93.172 Y119.019 E10.78327
G1 X91.735 Y118.440 E10.86056
G1 X90.342 Y117.751 E10.93809
G1 X89.012 Y116.958 E11.01535
G1 X87.751 Y116.071 E11.09226
G1 X86.557 Y115.088 E11.16942
G1 X85.437 Y114.010 E11.24698
G1 X84.410 Y112.856 E11.32405
G1 X83.472 Y111.627 E11.40118
G1 X82.629 Y110.324 E11.47861
G1 X81.892 Y108.970 E11.55552
G1 X81.255 Y107.552 E11.63307
G1 X80.732 Y106.091 E11.71049
G1 X80.324 Y104.604 E11.78742
G1 X80.029 Y103.086 E11.86457
G1 X79.851 Y101.545 E11.94196
G1 X79.793 Y100.000 E12.01909
G1 X79.851 Y98.454 E12.09628
G1 X80.029 Y96.913 E12.17367
G1 X80.324 Y95.395 E12.25082
G1 X80.732 Y93.908 E12.32775
G1 X81.255 Y92.447 E12.40517
G1 X81.892 Y91.029 E12.48272
G1 X82.629 Y89.675 E12.55963
G1 X83.472 Y88.372 E12.63706
G1 X84.410 Y87.143 E12.71419
G1 X85.437 Y85.989 E12.79126
G1 F2400 E8.79126
G0 F9000 X93.228 Y93.479
;TYPE:WALL-INNER
G1 F2400 E12.79126
G1 F1800 X93.740 Y92.987 E12.82669
G1 X94.303 Y92.523 E12.86309
G1 X94.896 Y92.106 E12.89925
G1 X95.502 Y91.745 E12.93445
G1 X96.152 Y91.423 E12.97064
G1 X96.827 Y91.152 E13.00692
G1 X97.510 Y90.936 E13.04266
G1 X98.207 Y90.772 E13.07839
G1 X98.927 Y90.661 E13.11473
G1 X99.635 Y90.607 E13.15016
G1 X100.364 Y90.607 E13.18653
G1 X101.072 Y90.661 E13.22195
G1 X101.792 Y90.772 E13.25830
G1 X102.489 Y90.936 E13.29402
G1 X103.172 Y91.152 E13.32976
G1 X103.847 Y91.423 E13.36605
G1 X104.497 Y91.745 E13.40224
G1 X105.103 Y92.106 E13.43743
G1 X105.696 Y92.523 E13.47359
G1 X106.259 Y92.987 E13.50999
G1 X106.771 Y93.479 E13.54542
G1 X107.250 Y94.018 E13.58139
G1 X107.686 Y94.589 E13.61724
G1 X108.080 Y95.198 E13.65342
G1 X108.425 Y95.832 E13.68943
G1 X108.717 Y96.482 E13.72498
G1 X108.959 Y97.158 E13.76081
G1 X109.153 Y97.864 E13.79733
G1 X109.289 Y98.564 E13.83291
G1 X109.371 Y99.274 E13.86857
G1 X109.399 Y99.999 E13.90476
G1 X109.371 Y100.725 E13.94101
G1 X109.289 Y101.435 E13.97667
G1 X109.153 Y102.135 E14.01225
G1 X108.959 Y102.841 E14.04877
G1 X108.717 Y103.517 E14.08460
G1 X108.425 Y104.167 E14.12015
G1 X108.080 Y104.801 E14.15616
G1 X107.686 Y105.410 E14.19234
G1 X107.250 Y105.981 E14.22819
G1 X106.771 Y106.520 E14.26416
G1 X106.259 Y107.012 E14.29959
G1 X105.696 Y107.476 E14.33598
G1 X105.103 Y107.893 E14.37215
G1 X104.497 Y108.254 E14.40734
G1 X103.847 Y108.576 E14.44353
G1 X103.172 Y108.847 E14.47982
G1 X102.489 Y109.063 E14.51556
G1 X101.792 Y109.227 E14.55128
G1 X101.072 Y109.338 E14.58763
G1 X100.364 Y109.392 E14.62305
G1 X99.635 Y109.392 E14.65942
G1 X98.927 Y109.338 E14.69485
G1 X98.207 Y109.227 E14.73119
G1 X97.510 Y109.063 E14.76692
G1 X96.827 Y108.847 E14.80266
G1 X96.152 Y108.576 E14.83894
G1 X95.502 Y108.254 E14.87513
G1 X94.896 Y107.893 E14.91032
G1 X94.303 Y107.476 E14.94649
G1 X93.740 Y107.012 E14.98289
G1 X93.228 Y106.520 E15.01832
G1 X92.749 Y105.981 E15.05429
G1 X92.313 Y105.410 E15.09013
G1 X91.919 Y104.801 E15.12632
G1 X91.574 Y104.167 E15.16233
G1 X91.282 Y103.517 E15.19788
G1 X91.040 Y102.841 E15.23370
G1 X90.846 Y102.135 E15.27023
G1 X90.710 Y101.435 E15.30581
G1 X90.628 Y100.725 E15.34147
G1 X90.601 Y100.000 E15.37766
G1 X90.628 Y99.274 E15.41391
G1 X90.710 Y98.564 E15.44956
G1 X90.846 Y97.864 E15.48514
G1 X91.040 Y97.158 E15.52167
G1 X91.282 Y96.482 E15.55749
G1 X91.574 Y95.832 E15.59304
G1 X91.919 Y95.198 E15.62905
G1 X92.313 Y94.589 E15.66524
G1 X92.749 Y94.018 E15.70108
G1 X93.228 Y93.479 E15.73706
G0 F9000 X92.933 Y93.209
;TYPE:WALL-OUTER
G1 F1800 X93.485 Y92.678 E15.77527
G1 X94.052 Y92.211 E15.81192
G1 X94.679 Y91.770 E15.85016
G1 X95.318 Y91.389 E15.88728
G1 X95.984 Y91.060 E15.92434
G1 X96.691 Y90.775 E15.96237
G1 X97.401 Y90.551 E15.99951
G1 X98.133 Y90.379 E16.03702
G1 X98.884 Y90.263 E16.07494
G1 X99.618 Y90.207 E16.11166
G1 X100.381 Y90.207 E16.14973
G1 X101.115 Y90.263 E16.18645
G1 X101.866 Y90.379 E16.22437
G1 X102.598 Y90.551 E16.26188
G1 X103.308 Y90.775 E16.29902
G1 X104.015 Y91.060 E16.33705
G1 X104.681 Y91.389 E16.37411
G1 X105.320 Y91.770 E16.41123
G1 X105.947 Y92.211 E16.44947
G1 X106.514 Y92.678 E16.48612
G1 X107.066 Y93.209 E16.52433
G1 X107.559 Y93.763 E16.56133
G1 X108.011 Y94.355 E16.59849
G1 X108.419 Y94.985 E16.63594
G1 X108.785 Y95.658 E16.67416
G1 X109.090 Y96.336 E16.71125
G1 X109.340 Y97.035 E16.74828
G1 X109.543 Y97.774 E16.78652
G1 X109.683 Y98.496 E16.82321
G1 X109.771 Y99.257 E16.86143
G1 X109.800 Y100.000 E16.89853
G1 X109.771 Y100.742 E16.93557
G1 X109.683 Y101.503 E16.97379
G1 X109.543 Y102.225 E17.01049
G1 X109.340 Y102.964 E17.04872
G1 X109.090 Y103.663 E17.08576
G1 X108.785 Y104.341 E17.12285
G1 X108.421 Y105.010 E17.16084
G1 X108.012 Y105.643 E17.19844
G1 X107.559 Y106.236 E17.23567
G1 X107.066 Y106.790 E17.27267
G1 X106.515 Y107.320 E17.31081
G1 X105.947 Y107.788 E17.34753
G1 X105.322 Y108.227 E17.38564
G1 X104.681 Y108.610 E17.42289
G1 X104.015 Y108.939 E17.45995
G1 X103.308 Y109.224 E17.49798
G1 X102.598 Y109.448 E17.53512
G1 X101.866 Y109.620 E17.57264
G1 X101.115 Y109.736 E17.61055
G1 X100.381 Y109.792 E17.64727
G1 X99.618 Y109.792 E17.68534
G1 X98.884 Y109.736 E17.72207
G1 X98.133 Y109.620 E17.75998
G1 X97.401 Y109.448 E17.79749
G1 X96.691 Y109.224 E17.83464
G1 X95.984 Y108.939 E17.87267
G1 X95.318 Y108.610 E17.90973
G1 X94.677 Y108.227 E17.94698
G1 X94.052 Y107.788 E17.98508
G1 X93.484 Y107.320 E18.02180
G1 X92.933 Y106.790 E18.05994
G1 X92.440 Y106.236 E18.09694
G1 X91.987 Y105.643 E18.13417
G1 X91.578 Y105.010 E18.17177
G1 X91.214 Y104.341 E18.20977
G1 X90.909 Y103.663 E18.24686
G1 X90.659 Y102.964 E18.28390
G1 X90.456 Y102.225 E18.32213
G1 X90.316 Y101.503 E18.35882
G1 X90.228 Y100.742 E18.39704
G1 X90.200 Y100.000 E18.43409
G1 X90.228 Y99.257 E18.47118
G1 X90.316 Y98.496 E18.50940
G1 X90.456 Y97.774 E18.54609
G1 X90.659 Y97.035 E18.58433
G1 X90.909 Y96.336 E18.62136
G1 X91.214 Y95.658 E18.65845
G1 X91.580 Y94.985 E18.69667
G1 X91.988 Y94.355 E18.73412
G1 X92.440 Y93.763 E18.77128
G1 X92.933 Y93.209 E18.80828
G0 F9000 X93.311 Y93.594
;TYPE:SKIN
G1 F1800 X106.399 Y106.681 E19.73167
G0 F9000 X106.686 Y106.404
G1 F1800 X93.599 Y93.316 E20.65507
G0 F9000 X93.891 Y93.042
G1 F1800 X106.952 Y106.104 E21.57662
G0 F9000 X107.212 Y105.798
G1 F1800 X94.201 Y92.787 E22.49462
G0 F9000 X94.521 Y92.541
G1 F1800 X107.458 Y105.478 E23.40740
G0 F9000 X107.690 Y105.145
G1 F1800 X94.852 Y92.307 E24.31319
G0 F9000 X95.199 Y92.087
G1 F1800 X107.912 Y104.801 E25.21019
G0 F9000 X108.116 Y104.439
G1 F1800 X95.553 Y91.876 E26.09658
G0 F9000 X95.931 Y91.688
G1 F1800 X108.314 Y104.071 E26.97027
G0 F9000 X108.489 Y103.681
G1 F1800 X96.316 Y91.508 E27.82914
G0 F9000 X96.720 Y91.346
G1 F1800 X108.654 Y103.280 E28.67115
G0 F9000 X108.802 Y102.862
G1 F1800 X97.139 Y91.199 E29.49403
G0 F9000 X97.571 Y91.066
G1 F1800 X108.928 Y102.423 E30.29533
G0 F9000 X109.042 Y101.971
G1 F1800 X98.029 Y90.958 E31.07236
G0 F9000 X98.504 Y90.868
G1 F1800 X109.134 Y101.497 E31.82233
G0 F9000 X109.198 Y100.996
G1 F1800 X98.997 Y90.795 E32.54206
G0 F9000 X99.523 Y90.755
G1 F1800 X109.240 Y100.472 E33.22765
G0 F9000 X106.107 Y106.955
G1 F1800 X93.045 Y93.893 E34.14924
G0 F9000 X92.785 Y94.199
G1 F1800 X105.796 Y107.210 E35.06724
G0 F9000 X105.476 Y107.456
G1 F1800 X92.540 Y94.520 E35.97995
G0 F9000 X92.307 Y94.853
G1 F1800 X105.144 Y107.690 E36.88567
G0 F9000 X104.798 Y107.910
G1 F1800 X92.085 Y95.196 E37.78267
G0 F9000 X91.881 Y95.558
G1 F1800 X104.445 Y108.122 E38.66913
G0 F9000 X104.067 Y108.310
G1 F1800 X91.684 Y95.926 E39.54285
G0 F9000 X91.508 Y96.316
G1 F1800 X103.681 Y108.489 E40.40172
G0 F9000 X103.277 Y108.651
G1 F1800 X91.344 Y96.718 E41.24366
G0 F9000 X91.195 Y97.135
G1 F1800 X102.858 Y108.798 E42.06655
G0 F9000 X102.426 Y108.931
G1 F1800 X91.070 Y97.575 E42.86778
G0 F9000 X90.956 Y98.027
G1 F1800 X101.968 Y109.039 E43.64473
G0 F9000 X101.493 Y109.129
G1 F1800 X90.863 Y98.500 E44.39470
G0 F9000 X90.800 Y99.002
G1 F1800 X101.000 Y109.202 E45.11437
G0 F9000 X100.474 Y109.242
G1 F1800 X90.757 Y99.525 E45.79995
G0 F9000 X90.743 Y100.077
G1 F1800 X99.917 Y109.250 E46.44719
G0 F9000 X99.327 Y109.227
G1 F1800 X90.764 Y100.664 E47.05136
G0 F9000 X90.836 Y101.301
G1 F1800 X98.693 Y109.158 E47.60571
G0 F9000 X98.002 Y109.033
G1 F1800 X90.960 Y101.991 E48.10256
G0 F9000 X91.163 Y102.759
G1 F1800 X97.230 Y108.826 E48.53062
G0 F9000 X96.336 Y108.498
G1 F1800 X91.501 Y103.663 E48.87176
G0 F9000 X92.110 Y104.838
G1 F1800 X95.156 Y107.883 E49.08663
G0 F9000 X109.255 Y99.921
G1 F1800 X100.081 Y90.747 E49.73391
G0 F9000 X100.670 Y90.770
G1 F1800 X109.233 Y99.333 E50.33808
G0 F9000 X109.162 Y98.697
G1 F1800 X101.305 Y90.839 E50.89246
G0 F9000 X101.995 Y90.965
G1 F1800 X109.037 Y98.007 E51.38932
G0 F9000 X108.835 Y97.238
G1 F1800 X102.768 Y91.171 E51.81738
G0 F9000 X103.662 Y91.500
G1 F1800 X108.497 Y96.335 E52.15851
G0 F9000 X107.890 Y95.162
G1 F1800 X104.841 Y92.113 E52.37363
;LAYER:1
M106 S63
G0 F9000 X105.103 Y92.106 Z0.500
;TYPE:WALL-INNER
G1 F2520 X105.696 Y92.523 E52.39775
G1 X106.259 Y92.987 E52.42201
G1 X106.771 Y93.479 E52.44563
G1 X107.250 Y94.018 E52.46961
G1 X107.686 Y94.589 E52.49351
G1 X108.080 Y95.198 E52.51763
G1 X108.425 Y95.832 E52.54164
G1 X108.717 Y96.482 E52.56534
G1 X108.959 Y97.158 E52.58922
G1 X109.153 Y97.864 E52.61357
G1 X109.289 Y98.564 E52.63729
G1 X109.371 Y99.274 E52.66106
G1 X109.399 Y99.999 E52.68519
G1 X109.371 Y100.725 E52.70936
G1 X109.289 Y101.435 E52.73313
G1 X109.153 Y102.135 E52.75685
G1 X108.959 Y102.841 E52.78120
G1 X108.717 Y103.517 E52.80508
G1 X108.425 Y104.167 E52.82878
G1 X108.080 Y104.801 E52.85279
G1 X107.686 Y105.410 E52.87691
G1 X107.250 Y105.981 E52.90081
G1 X106.771 Y106.520 E52.92479
G1 X106.259 Y107.012 E52.94841
G1 X105.696 Y107.476 E52.97267
G1 X105.103 Y107.893 E52.99678
G1 X104.497 Y108.254 E53.02025
G1 X103.847 Y108.576 E53.04437
G1 X103.172 Y108.847 E53.06856
G1 X102.489 Y109.063 E53.09239
G1 X101.792 Y109.227 E53.11621
G1 X101.072 Y109.338 E53.14044
G1 X100.364 Y109.392 E53.16405
G1 X99.635 Y109.392 E53.18830
G1 X98.927 Y109.338 E53.21192
G1 X98.207 Y109.227 E53.23615
G1 X97.510 Y109.063 E53.25996
G1 X96.827 Y108.847 E53.28379
G1 X96.152 Y108.576 E53.30798
G1 X95.502 Y108.254 E53.33211
G1 X94.896 Y107.893 E53.35557
G1 X94.303 Y107.476 E53.37968
G1 X93.740 Y107.012 E53.40394
G1 X93.228 Y106.520 E53.42756
G1 X92.749 Y105.981 E53.45154
G1 X92.313 Y105.410 E53.47544
G1 X91.919 Y104.801 E53.49956
G1 X91.574 Y104.167 E53.52357
G1 X91.282 Y103.517 E53.54727
G1 X91.040 Y102.841 E53.57115
G1 X90.846 Y102.135 E53.59550
G1 X90.710 Y101.435 E53.61922
G1 X90.628 Y100.725 E53.64299
G1 X90.601 Y100.000 E53.66712
G1 X90.628 Y99.274 E53.69129
G1 X90.710 Y98.564 E53.71506
G1 X90.846 Y97.864 E53.73878
G1 X91.040 Y97.158 E53.76313
G1 X91.282 Y96.482 E53.78701
G1 X91.574 Y95.832 E53.81071
G1 X91.919 Y95.198 E53.83472
G1 X92.313 Y94.589 E53.85884
G1 X92.749 Y94.018 E53.88274
G1 X93.228 Y93.479 E53.90672
G1 X93.740 Y92.987 E53.93034
G1 X94.303 Y92.523 E53.95460
G1 X94.896 Y92.106 E53.97871
G1 X95.502 Y91.745 E54.00217
G1 X96.152 Y91.423 E54.02630
G1 X96.827 Y91.152 E54.05049
G1 X97.510 Y90.936 E54.07432
G1 X98.207 Y90.772 E54.09813
G1 X98.927 Y90.661 E54.12236
G1 X99.635 Y90.607 E54.14598
G1 X100.364 Y90.607 E54.17023
G1 X101.072 Y90.661 E54.19384
G1 X101.792 Y90.772 E54.21807
G1 X102.489 Y90.936 E54.24189
G1 X103.172 Y91.152 E54.26572
G1 X103.847 Y91.423 E54.28991
G1 X104.497 Y91.745 E54.31403
G1 X105.103 Y92.106 E54.33750
G0 F9000 X105.320 Y91.770
;TYPE:WALL-OUTER
G1 F1980 X105.947 Y92.211 E54.36299
G1 X106.514 Y92.678 E54.38742
G1 X107.066 Y93.209 E54.41290
G1 X107.559 Y93.763 E54.43756
G1 X108.011 Y94.355 E54.46234
G1 X108.419 Y94.985 E54.48730
G1 X108.785 Y95.658 E54.51278
G1 X109.090 Y96.336 E54.53751
G1 X109.340 Y97.035 E54.56220
